X: 39045
T: Swansea
R: hornpipe
M: 4/4
K: Gmajor
d2 b2 b>gd>B|c2 a2 a2 a>g|f>ga>b c'>af>g|(3aba g>e d>cB>c|
d2 b2 b>gd>B|c2 a2 a2 a>g|f>ga>b c'>af>g|(3aba g>f g2:|
d>Bd>B (3ded g>f|e>ce>c (3efe (3gfe|d>Bd>G e>dc>B|A>B (3cBA G>FE>D|
d>Gd>G d2 g>f|e>Ge>G e2 g>e|d2 (3Bcd e>cA>F|G2 d2 G2:|
d2 b2 bgdB|c2 a2 a2 ag|fgab c'afg|abge dcBc|
d2 b2 bgdB|c2 a2 a2 ag|fgab c'afg|abgf g2:|
dBdB d2 gf|ecec efge|dBdG edcB|ABcA GFED|
dGdG d2 gf|eGeG e2 ge|dGBd ecAF|G2 g2 G2:|

